X: 540
T: Abbots Bromley Horn Dance, The
R: jig
M: 6/8
K: Eminor
e|B2 e G2 e|B2 e E2 G|F>GA G>AB|A>GF G2 e|
B2 e G2 e|Bee E2 G|FF/G/A GG/A/B|AGF E2||
e|c2 e cde|A2 c ABc|FGA GFE|D2 F [B,2B2] g|
e2 g efg|c2 e cde|dcB AGF|E3 E2||
A|B>cB c3|B>cB e3|B>cB A>GF|G2 F EF/G/A|
B>GE cEG|B>GE c2 E|B>cB AGF|E3 E2||

